X:239
T:Jeff Davis
C:Norman Blake / Arr. David Grier
N:Transcribed by Mike Stangeland 
R:bluegrass
L:1/8
Q:1/4=225
M:4/4
K:Bb
z6 df |: "Gm"g2 df g2 df | gf dc BG df | g2 df g2 df | gf dB c2 df | "Gm"g2 df g2 df | 
gf dc BG z2 | GA Bc "F"df gf |1 d"D7"c BA "Gm"G2 df :|2 d"D7"c BA "Gm"G2 {_G}=GA | 
|: "Gm"BG B2 c4 | {c}d2 {c}d2 cB GF | GA Bc "F"df gf | "D7"dc BA "Gm"G2 {_G}=GA | 
BG B2 c4 | {c}d2 {c}d2 cB GF | GA Bc "F"df gf |1 d"D7"c BA "Gm"G2 {_G}=GA :|2 d"D7"c BA "Gm"G4 | 


